www/assets/images/test_icons/flags/ER.svg

<svg width="21" height="15" viewBox="0 0 21 15" fill="none" xmlns="http://www.w3.org/2000/svg">
<mask id="mask0_3_158" style="mask-type:alpha" maskUnits="userSpaceOnUse" x="0" y="0" width="21" height="15">
<path d="M19 0H2C0.89543 0 0 0.89543 0 2V13C0 14.1046 0.89543 15 2 15H19C20.1046 15 21 14.1046 21 13V2C21 0.89543 20.1046 0 19 0Z" fill="white"/>
</mask>
<g mask="url(#mask0_3_158)">
<path d="M19 0H2C0.89543 0 0 0.89543 0 2V13C0 14.1046 0.89543 15 2 15H19C20.1046 15 21 14.1046 21 13V2C21 0.89543 20.1046 0 19 0Z" fill="#3C87E0"/>
<path fill-rule="evenodd" clip-rule="evenodd" d="M0 0H21V8H0V0Z" fill="#00AF1E"/>
<path fill-rule="evenodd" clip-rule="evenodd" d="M0 0L21 7.5L0 15V0Z" fill="#ED0030"/>
<path fill-rule="evenodd" clip-rule="evenodd" d="M9 7.50001C9 6.12001 7.88 5.00001 6.5 4.50001C5.12 5.00001 4 6.12001 4 7.50001C4 8.71001 4.86 9.71801 6 9.95001V6.49801C6 6.22301 6.232 6.00001 6.5 6.00001C6.776 6.00001 7 6.21501 7 6.49801V9.95001C8.14 9.71801 9 8.71001 9 7.50001ZM10 7.50001C10 5.56701 8.433 4.00001 6.5 4.50001C4.567 4.00001 3 5.56701 3 7.50001C3 9.43301 4.567 11 6.5 11C8.433 11 10 9.43301 10 7.50001Z" fill="#FFC800"/>
<path d="M19 0.5H2C1.17157 0.5 0.5 1.17157 0.5 2V13C0.5 13.8284 1.17157 14.5 2 14.5H19C19.8284 14.5 20.5 13.8284 20.5 13V2C20.5 1.17157 19.8284 0.5 19 0.5Z" stroke="black" stroke-opacity="0.1"/>
</g>
</svg>

<svg fill="none" height="15" viewBox="0 0 21 15" width="21" xmlns="http://www.w3.org/2000/svg" xmlns:xlink="http://www.w3.org/1999/xlink"><mask id="a" height="15" maskUnits="userSpaceOnUse" width="21" x="0" y="0"><path d="m19 0h-17c-1.10457 0-2 .89543-2 2v11c0 1.1046.89543 2 2 2h17c1.1046 0 2-.8954 2-2v-11c0-1.10457-.8954-2-2-2z" fill="#fff"/></mask><g mask="url(#a)"><path d="m19 0h-17c-1.10457 0-2 .89543-2 2v11c0 1.1046.89543 2 2 2h17c1.1046 0 2-.8954 2-2v-11c0-1.10457-.8954-2-2-2z" fill="#3c87e0"/><g clip-rule="evenodd" fill-rule="evenodd"><path d="m0 0h21v8h-21z" fill="#00af1e"/><path d="m0 0 21 7.5-21 7.5z" fill="#ed0030"/><path d="m9 7.50001c0-1.38-1.12-2.5-2.5-3-1.38.5-2.5 1.62-2.5 3 0 1.21.86 2.218 2 2.45v-3.452c0-.275.232-.498.5-.498.276 0 .5.215.5.498v3.452c1.14-.232 2-1.24 2-2.45zm1 0c0-1.933-1.567-3.5-3.5-3-1.933-.5-3.5 1.067-3.5 3s1.567 3.49999 3.5 3.49999 3.5-1.56699 3.5-3.49999z" fill="#ffc800"/></g><path d="m19 .5h-17c-.82843 0-1.5.67157-1.5 1.5v11c0 .8284.67157 1.5 1.5 1.5h17c.8284 0 1.5-.6716 1.5-1.5v-11c0-.82843-.6716-1.5-1.5-1.5z" stroke="#000" stroke-opacity=".1"/></g></svg>
